app/images/icon/icon-svg/vk.svg

<svg width="40" height="40" viewBox="0 0 40 40" fill="none" xmlns="http://www.w3.org/2000/svg">
<path fill-rule="evenodd" clip-rule="evenodd" d="M40 20C40 31.0457 31.0457 40 20 40C8.9543 40 0 31.0457 0 20C0 8.9543 8.9543 0 20 0C31.0457 0 40 8.9543 40 20ZM20.2749 28.9372H18.7208C18.7208 28.9372 15.2917 29.146 12.2721 25.9666C8.97886 22.4989 6.07041 15.6175 6.07041 15.6175C6.07041 15.6175 5.90275 15.1664 6.08488 14.9483C6.2896 14.703 6.84729 14.6873 6.84729 14.6873L10.5623 14.6627C10.5623 14.6627 10.9124 14.722 11.163 14.9079C11.3695 15.0614 11.4853 15.3484 11.4853 15.3484C11.4853 15.3484 12.0857 16.884 12.8809 18.2733C14.4329 20.9854 15.1558 21.5786 15.6828 21.2881C16.4505 20.8644 16.2204 17.4541 16.2204 17.4541C16.2204 17.4541 16.2345 16.2162 15.8339 15.665C15.5236 15.2377 14.9384 15.1132 14.68 15.0782C14.471 15.05 14.8141 14.5592 15.2589 14.3389C15.9274 14.0077 17.1081 13.9888 18.503 14.0034C19.5898 14.0145 19.9025 14.083 20.3275 14.1869C21.3134 14.4276 21.2827 15.1991 21.2164 16.8636C21.1966 17.3609 21.1736 17.938 21.1736 18.6045C21.1736 18.7545 21.1692 18.9143 21.1648 19.0788C21.1418 19.9312 21.1154 20.9072 21.6702 21.2699C21.9547 21.4555 22.6507 21.2977 24.3916 18.3082C25.2168 16.8915 25.8356 15.2256 25.8356 15.2256C25.8356 15.2256 25.9707 14.9286 26.1808 14.8012C26.3957 14.6713 26.6855 14.7112 26.6855 14.7112L30.595 14.6866C30.595 14.6866 31.7696 14.5449 31.9599 15.081C32.1593 15.644 31.5208 16.9583 29.9236 19.111C28.4059 21.1567 27.6689 21.9078 27.7392 22.5737C27.7904 23.0584 28.2694 23.498 29.1866 24.3589C31.111 26.1653 31.6239 27.1138 31.7458 27.3392C31.7557 27.3575 31.763 27.371 31.7682 27.3798C32.6295 28.824 30.8131 28.9372 30.8131 28.9372L27.341 28.9861C27.341 28.9861 26.5948 29.1357 25.6128 28.4535C25.0993 28.0971 24.5972 27.515 24.1189 26.9604C23.3877 26.1127 22.7118 25.3291 22.135 25.514C21.1672 25.8246 21.1976 27.9335 21.1976 27.9335C21.1976 27.9335 21.2046 28.3839 20.984 28.6238C20.7443 28.8851 20.2749 28.9372 20.2749 28.9372Z" fill="#C3B9B5"/>
</svg>

<svg width="40" height="40" fill="none" xmlns="http://www.w3.org/2000/svg"><path fill-rule="evenodd" clip-rule="evenodd" d="M40 20c0 11.046-8.954 20-20 20S0 31.046 0 20 8.954 0 20 0s20 8.954 20 20zm-19.725 8.937H18.72s-3.43.209-6.449-2.97C8.98 22.499 6.07 15.617 6.07 15.617s-.167-.45.015-.669c.205-.245.762-.26.762-.26l3.715-.025s.35.059.601.245c.207.153.322.44.322.44s.6 1.536 1.396 2.925c1.552 2.712 2.275 3.306 2.802 3.015.768-.424.537-3.834.537-3.834s.015-1.238-.386-1.789c-.31-.427-.896-.552-1.154-.587-.209-.028.134-.519.579-.74.668-.33 1.85-.35 3.244-.335 1.087.011 1.4.08 1.825.184.985.24.955 1.012.888 2.677-.02.497-.042 1.074-.042 1.74 0 .15-.005.31-.01.475-.022.852-.049 1.828.506 2.19.285.187.98.029 2.722-2.96.825-1.418 1.444-3.083 1.444-3.083s.135-.297.345-.425c.215-.13.505-.09.505-.09l3.909-.024s1.175-.142 1.365.394c.2.563-.44 1.877-2.036 4.03-1.518 2.046-2.255 2.797-2.185 3.463.051.484.53.924 1.448 1.785 1.924 1.806 2.437 2.755 2.559 2.98l.022.04c.861 1.445-.955 1.558-.955 1.558l-3.472.05s-.746.149-1.728-.534c-.514-.356-1.016-.938-1.494-1.493-.731-.847-1.407-1.63-1.984-1.446-.968.31-.937 2.42-.937 2.42s.007.45-.214.69c-.24.261-.71.313-.71.313z" fill="#C3B9B5"/></svg>
